assets/images/process.svg

<svg xmlns="http://www.w3.org/2000/svg" preserveAspectRatio="xMidYMid" width="120" height="30" viewBox="0 0 120 30"><defs><style>.cls-1{fill:#0d0d0d;fill-rule:evenodd}</style></defs><path d="M115.641 9.531l1.757 1.758c.156.158.156.275 0 .352l-5.859.117c-1.329 1.406-2.891 2.735-4.687 3.984l.703.352 4.336-.117 1.054-1.407 2.344 1.407c.156.234.156.391 0 .468l-.586.938v7.5c0 1.327-.665 2.655-1.992 3.984a1.062 1.062 0 0 1-.469.117c-.079-.078-.117-.196-.117-.351-.313-1.33-.586-2.15-.82-2.461l-3.75.117c-.079 1.249-.548 2.227-1.407 2.93-.157.234-.313.351-.468.351-.079 0-.117-.078-.117-.234l.117-12.656c-.313.157-.744.468-1.289.937-.938.626-1.641 1.095-2.11 1.406-.157.079-.234.041-.234-.117-.079-.077-.04-.155.117-.234a192.9 192.9 0 0 0 3.399-2.813l.117-.117v-.586l.351.235a37.357 37.357 0 0 0 3.516-3.516h-2.227c-1.25.079-2.226.196-2.929.352l-.938-.821 4.453-.117V6.602h-.117c-.703.078-1.485.157-2.344.234a1.032 1.032 0 0 1-.468.117l-.938-.82 3.867-.117-.117-4.922 3.047.82c.156.234.156.392 0 .469-.234.234-.43.626-.586 1.172v2.461l.352-.118 1.289-1.289 1.406 1.641c.156.157.117.234-.117.234l-2.93.118-.234 4.57h.117c1.875-2.265 3.592-4.765 5.156-7.5l1.875 1.64c.156.079.077.196-.234.352l-.469.586c-1.641 1.954-3.087 3.594-4.336 4.922l2.109-.117 1.407-1.524zm-8.086 11.25l3.398-.234c.156 0 .234.117.234.351 0 .158-.117.235-.351.235l-3.281.234v4.688l4.336-.118c.077-.155.117-.272.117-.351v-9.023l-4.453.117v4.101zm-5.625-8.672l-.352 10.196 2.578-2.227c.156-.077.194 0 .117.235L101.461 25a14.77 14.77 0 0 0-1.523 2.578c-.079.235-.235.311-.469.235l-1.992-1.758c-.158-.077-.196-.156-.118-.235.077-.077.235-.194.469-.351a56.212 56.212 0 0 0 1.875-1.407V11.641H99c-.547.078-1.133.196-1.758.351l-.937-.82 3.164-.234 1.054-1.407 2.11 1.289c.155.079.155.196 0 .352l-.703.937zm-1.875-4.921c-.235-1.876-.703-3.165-1.407-3.868-.078-.155-.04-.194.118-.117 2.03.861 3.202 1.641 3.515 2.344.077.782-.351 1.485-1.289 2.109-.392.158-.703 0-.937-.468zm-1.641-4.336c-.157.234-.352.664-.586 1.289-.392.781-1.055 2.032-1.992 3.75v17.695a6.144 6.144 0 0 1-1.406 3.164c-.469.39-.703.39-.703 0l.117-7.852V10.703c-1.72 2.578-3.477 4.922-5.274 7.031-.313.079-.392 0-.234-.234 3.281-4.764 6.015-10.312 8.203-16.641l2.227 1.172c.155.079.155.196 0 .352l-.352.469zm-18.82 15.586v2.578l.117 3.515c-.079 2.11-1.251 3.71-3.516 4.805-.157.077-.274.077-.351 0-.079-.079-.079-.196 0-.352.077-1.171-.392-1.953-1.407-2.343-.157-.235-.117-.392.118-.469 1.952.311 2.812.077 2.578-.703l-.117-6.094v-.703h-2.93c-1.406.079-2.461.234-3.164.469l-1.055-.938 7.149-.234a59.415 59.415 0 0 1-.118-3.75c-.078-.235-.04-.312.118-.235l1.757.703 2.579-3.867-4.922.352c-1.33.157-2.344.351-3.047.586l-1.055-.938 9.375-.468 1.289-1.407 2.344 2.227c.077.079.117.157.117.234 0 .079-.079.117-.234.117-1.172.235-3.164 1.368-5.977 3.399l.821.351c.155.158.155.275 0 .352-.235.234-.392.547-.469.938v1.289l4.57-.118 1.523-1.875 2.227 1.875c.156.235.117.392-.117.469l-8.203.235zm7.734-12.071l-13.711.352c-1.798 2.657-3.321 4.649-4.57 5.976.077.079.117.235.117.469l-.117 2.227v5.039l.117 5.039c-.234 1.483-.782 2.734-1.641 3.75-.391.39-.664.351-.82-.117l.117-7.5v-6.446a66.304 66.304 0 0 1-7.617 6.563c-.079.078-.157.078-.234 0-.079-.156-.079-.273 0-.352 2.344-1.952 4.922-4.764 7.734-8.437 0-.235-.04-.508-.117-.821v-.703l.82.469c1.328-1.718 2.461-3.398 3.399-5.039l-5.743.117c-1.329.079-2.384.235-3.164.469l-.82-1.055 10.078-.234c1.328-2.031 2.265-3.827 2.813-5.391l2.461 1.641c.311.234.311.43 0 .586l-.586.586a51.48 51.48 0 0 0-.821 1.289c-.391.547-.703.978-.937 1.289l9.258-.235 1.992-1.875 2.109 1.993.117.234c-.078.079-.157.117-.234.117zM55.734 9.414c-2.422 4.611-4.766 8.516-7.031 11.719l-.117 5.508 6.094-.118 1.758-1.64 2.578 1.875c.077.155.038.273-.118.351l-24.492.352c-1.329.077-2.461.194-3.398.352l-.938-.938 10.196-.117.117-20.391-.117-5.273 3.046.937c.235.079.273.235.118.469-.235.234-.431.626-.586 1.172l-.117 22.969h3.281l.117-20.157-.117-5.273 3.398.937c.235 0 .235.158 0 .469-.234.079-.43.469-.586 1.172l-.117 15.938c2.109-4.844 3.593-9.258 4.453-13.243l3.399 1.993c.155.157.155.274 0 .351l-.821.586zM35.93 19.375c-.158-4.374-1.095-8.28-2.813-11.719 0-.155.077-.194.235-.117 3.671 4.376 5.663 7.734 5.976 10.078-.234 1.172-1.055 1.992-2.461 2.461-.703.158-1.016-.077-.937-.703zm-22.102-7.148l-.469 2.578-.351 1.406 7.617-.117 1.172-1.289 2.812 2.109c.156.079.156.196 0 .352l-1.054.703c-1.72 1.64-4.025 3.594-6.914 5.859 1.562.703 2.655 1.329 3.281 1.875.546.546.469 1.6-.234 3.164-.392.703-.9.625-1.524-.234-2.032-2.501-4.611-4.688-7.734-6.563-.079-.155-.041-.273.117-.351.156.078.351.157.586.234 2.186.703 3.827 1.289 4.922 1.758a88.368 88.368 0 0 0 4.453-7.031l-7.617.117c-.703.86-1.603 1.485-2.696 1.875-.392.079-.586 0-.586-.234l1.289-4.688.235-1.523-5.274.234c-1.485 0-2.578.079-3.281.234l-.937-.82 9.609-.117.938-4.57-3.399.117c-1.172 0-2.267.078-3.281.234l-.938-.82 7.735-.117.586-2.344.586-3.399 3.046 1.172c.235.158.235.352 0 .586-.468.313-.743.861-.82 1.641l-.586 2.344h7.149l1.523-1.524 1.875 1.641.117.234c-.078.079-.157.117-.234.117L15 7.188l-.937 4.453 11.484-.118 1.875-1.875 1.992 1.993c.156.157.117.234-.117.234l-15.469.352z" class="cls-1"/></svg>

<svg xmlns="http://www.w3.org/2000/svg" xmlns:xlink="http://www.w3.org/1999/xlink" preserveAspectRatio="xMidYMid" width="120" height="30" viewBox="0 0 120 30">
  <defs>
    <style>
      .cls-1 {
        fill: #0d0d0d;
        fill-rule: evenodd;
      }
    </style>
  </defs>
  <path d="M115.641,9.531 L117.398,11.289 C117.554,11.447 117.554,11.564 117.398,11.641 L111.539,11.758 C110.210,13.164 108.648,14.493 106.852,15.742 L107.555,16.094 L111.891,15.977 L112.945,14.570 L115.289,15.977 C115.445,16.211 115.445,16.368 115.289,16.445 L114.703,17.383 L114.703,24.883 C114.703,26.210 114.038,27.538 112.711,28.867 C112.553,28.944 112.398,28.984 112.242,28.984 C112.163,28.906 112.125,28.788 112.125,28.633 C111.812,27.303 111.539,26.483 111.305,26.172 L107.555,26.289 C107.476,27.538 107.007,28.516 106.148,29.219 C105.991,29.453 105.835,29.570 105.680,29.570 C105.601,29.570 105.563,29.492 105.563,29.336 L105.680,16.680 C105.367,16.837 104.936,17.148 104.391,17.617 C103.453,18.243 102.750,18.712 102.281,19.023 C102.124,19.102 102.047,19.064 102.047,18.906 C101.968,18.829 102.007,18.751 102.164,18.672 C102.944,18.047 104.078,17.110 105.563,15.859 L105.680,15.742 L105.680,15.156 L106.031,15.391 C107.359,14.219 108.531,13.047 109.547,11.875 L107.320,11.875 C106.070,11.954 105.094,12.071 104.391,12.227 L103.453,11.406 L107.906,11.289 L107.906,6.602 L107.789,6.602 C107.086,6.680 106.304,6.759 105.445,6.836 C105.288,6.915 105.132,6.953 104.977,6.953 L104.039,6.133 L107.906,6.016 L107.789,1.094 L110.836,1.914 C110.992,2.148 110.992,2.306 110.836,2.383 C110.602,2.617 110.406,3.009 110.250,3.555 L110.250,6.016 L110.602,5.898 L111.891,4.609 L113.297,6.250 C113.453,6.407 113.414,6.484 113.180,6.484 L110.250,6.602 L110.016,11.172 L110.133,11.172 C112.008,8.907 113.725,6.407 115.289,3.672 L117.164,5.312 C117.320,5.391 117.241,5.508 116.930,5.664 L116.461,6.250 C114.820,8.204 113.374,9.844 112.125,11.172 L114.234,11.055 L115.641,9.531 ZM107.555,20.781 L110.953,20.547 C111.109,20.547 111.187,20.664 111.187,20.898 C111.187,21.056 111.070,21.133 110.836,21.133 L107.555,21.367 L107.555,26.055 L111.891,25.937 C111.968,25.782 112.008,25.665 112.008,25.586 L112.008,16.563 L107.555,16.680 L107.555,20.781 ZM101.930,12.109 L101.578,22.305 L104.156,20.078 C104.312,20.001 104.350,20.078 104.273,20.313 L101.461,25.000 C100.835,25.861 100.328,26.718 99.938,27.578 C99.859,27.813 99.703,27.889 99.469,27.813 L97.477,26.055 C97.319,25.978 97.281,25.899 97.359,25.820 C97.436,25.743 97.594,25.626 97.828,25.469 C98.687,24.844 99.311,24.376 99.703,24.062 L99.703,11.641 L99.000,11.641 C98.453,11.719 97.867,11.837 97.242,11.992 L96.305,11.172 L99.469,10.938 L100.523,9.531 L102.633,10.820 C102.788,10.899 102.788,11.016 102.633,11.172 L101.930,12.109 ZM100.055,7.188 C99.820,5.312 99.352,4.023 98.648,3.320 C98.570,3.165 98.608,3.126 98.766,3.203 C100.796,4.064 101.968,4.844 102.281,5.547 C102.358,6.329 101.930,7.032 100.992,7.656 C100.600,7.814 100.289,7.656 100.055,7.188 ZM98.414,2.852 C98.257,3.086 98.062,3.516 97.828,4.141 C97.436,4.922 96.773,6.173 95.836,7.891 L95.836,25.586 C95.678,26.758 95.210,27.813 94.430,28.750 C93.961,29.140 93.727,29.140 93.727,28.750 L93.844,20.898 L93.844,10.703 C92.124,13.281 90.367,15.625 88.570,17.734 C88.257,17.813 88.178,17.734 88.336,17.500 C91.617,12.736 94.351,7.188 96.539,0.859 L98.766,2.031 C98.921,2.110 98.921,2.227 98.766,2.383 L98.414,2.852 ZM79.594,18.438 L79.594,21.016 L79.711,24.531 C79.632,26.641 78.460,28.241 76.195,29.336 C76.038,29.413 75.921,29.413 75.844,29.336 C75.765,29.257 75.765,29.140 75.844,28.984 C75.921,27.813 75.452,27.031 74.437,26.641 C74.280,26.406 74.320,26.249 74.555,26.172 C76.507,26.483 77.367,26.249 77.133,25.469 L77.016,19.375 L77.016,18.672 L74.086,18.672 C72.680,18.751 71.625,18.906 70.922,19.141 L69.867,18.203 L77.016,17.969 C76.937,16.720 76.898,15.469 76.898,14.219 C76.820,13.984 76.858,13.907 77.016,13.984 L78.773,14.687 L81.352,10.820 L76.430,11.172 C75.100,11.329 74.086,11.523 73.383,11.758 L72.328,10.820 L81.703,10.352 L82.992,8.945 L85.336,11.172 C85.413,11.251 85.453,11.329 85.453,11.406 C85.453,11.485 85.374,11.523 85.219,11.523 C84.047,11.758 82.055,12.891 79.242,14.922 L80.063,15.273 C80.218,15.431 80.218,15.548 80.063,15.625 C79.828,15.859 79.671,16.172 79.594,16.563 L79.594,17.852 L84.164,17.734 L85.687,15.859 L87.914,17.734 C88.070,17.969 88.031,18.126 87.797,18.203 L79.594,18.438 ZM87.328,6.367 L73.617,6.719 C71.819,9.376 70.296,11.368 69.047,12.695 C69.124,12.774 69.164,12.930 69.164,13.164 L69.047,15.391 L69.047,20.430 L69.164,25.469 C68.930,26.952 68.382,28.203 67.523,29.219 C67.132,29.609 66.859,29.570 66.703,29.102 L66.820,21.602 L66.820,16.563 C66.820,16.094 66.820,15.625 66.820,15.156 C64.398,17.579 61.858,19.767 59.203,21.719 C59.124,21.797 59.046,21.797 58.969,21.719 C58.890,21.563 58.890,21.446 58.969,21.367 C61.313,19.415 63.891,16.603 66.703,12.930 C66.703,12.695 66.663,12.422 66.586,12.109 C66.586,11.798 66.586,11.564 66.586,11.406 L67.406,11.875 C68.734,10.157 69.867,8.477 70.805,6.836 L65.062,6.953 C63.733,7.032 62.678,7.188 61.898,7.422 L61.078,6.367 L71.156,6.133 C72.484,4.102 73.421,2.306 73.969,0.742 L76.430,2.383 C76.741,2.617 76.741,2.813 76.430,2.969 L75.844,3.555 C75.686,3.789 75.413,4.219 75.023,4.844 C74.632,5.391 74.320,5.822 74.086,6.133 L83.344,5.898 L85.336,4.023 L87.445,6.016 L87.562,6.250 C87.484,6.329 87.405,6.367 87.328,6.367 ZM55.734,9.414 C53.312,14.025 50.968,17.930 48.703,21.133 L48.586,26.641 L54.680,26.523 L56.438,24.883 L59.016,26.758 C59.093,26.913 59.054,27.031 58.898,27.109 L34.406,27.461 C33.077,27.538 31.945,27.655 31.008,27.813 L30.070,26.875 L40.266,26.758 L40.383,6.367 L40.266,1.094 L43.312,2.031 C43.547,2.110 43.585,2.266 43.430,2.500 C43.195,2.734 42.999,3.126 42.844,3.672 L42.727,26.641 L46.008,26.641 L46.125,6.484 L46.008,1.211 L49.406,2.148 C49.641,2.148 49.641,2.306 49.406,2.617 C49.172,2.696 48.976,3.086 48.820,3.789 L48.703,19.727 C50.812,14.883 52.296,10.469 53.156,6.484 L56.555,8.477 C56.710,8.634 56.710,8.751 56.555,8.828 L55.734,9.414 ZM35.930,19.375 C35.772,15.001 34.835,11.095 33.117,7.656 C33.117,7.501 33.194,7.462 33.352,7.539 C37.023,11.915 39.015,15.273 39.328,17.617 C39.094,18.789 38.273,19.609 36.867,20.078 C36.164,20.236 35.851,20.001 35.930,19.375 ZM13.828,12.227 L13.359,14.805 L13.008,16.211 L20.625,16.094 L21.797,14.805 L24.609,16.914 C24.765,16.993 24.765,17.110 24.609,17.266 L23.555,17.969 C21.835,19.609 19.530,21.563 16.641,23.828 C18.203,24.531 19.296,25.157 19.922,25.703 C20.468,26.249 20.391,27.303 19.688,28.867 C19.296,29.570 18.788,29.492 18.164,28.633 C16.132,26.132 13.553,23.945 10.430,22.070 C10.351,21.915 10.389,21.797 10.547,21.719 C10.703,21.797 10.898,21.876 11.133,21.953 C13.319,22.656 14.960,23.242 16.055,23.711 C17.695,21.367 19.178,19.023 20.508,16.680 L12.891,16.797 C12.188,17.657 11.288,18.282 10.195,18.672 C9.803,18.751 9.609,18.672 9.609,18.438 L10.898,13.750 L11.133,12.227 L5.859,12.461 C4.374,12.461 3.281,12.540 2.578,12.695 L1.641,11.875 L11.250,11.758 L12.188,7.188 L8.789,7.305 C7.617,7.305 6.522,7.383 5.508,7.539 L4.570,6.719 L12.305,6.602 L12.891,4.258 L13.477,0.859 L16.523,2.031 C16.758,2.189 16.758,2.383 16.523,2.617 C16.055,2.930 15.780,3.478 15.703,4.258 L15.117,6.602 L22.266,6.602 L23.789,5.078 L25.664,6.719 L25.781,6.953 C25.703,7.032 25.624,7.070 25.547,7.070 L15.000,7.188 L14.063,11.641 L25.547,11.523 L27.422,9.648 L29.414,11.641 C29.570,11.798 29.531,11.875 29.297,11.875 L13.828,12.227 Z" class="cls-1"/>
</svg>
